X:196
T:Jenny Sutton. THO5.196
M:C|
L:1/8
B:Thompson's Complete Collection of 200 Favourite Dances Vol.5
F:https://www.libraryofdance.org/manuals/1780c-Thompson-Compleat-5.pdf
Z:vmp. Peter Dunk 2024
Q:1/4=115
K:A
A/A/A Ac ecec|A/A/A Ac dBGB|AA/A/ Ac ecec|dfdB c2A2:|
(aA)(aA) (gA)(gA)|fgaf ecBA|(aA)(aA) (gA)(gA)|fgaf f2e2|
aFFa gEEg|fDDf ecBA|A/A/A Ac ecfd|caBg a2A2|]
W:
W:Foot it and cast off 2 Couples ./.
W:cast up again ./:
W:lead down two couples :/.
W:up again and cast off :/:
W:set corners and turn //
W:the Lady Hey at the top, the Gent at bottom //

